polaris-icons/icons/newicons/LogOutMinor.svg

<svg width="20" height="20" viewBox="0 0 20 20" fill="none" xmlns="http://www.w3.org/2000/svg">
<path d="M9.25 2C7.73122 2 6.5 3.23122 6.5 4.75V4.92241C6.5 5.33663 6.83579 5.67241 7.25 5.67241C7.66421 5.67241 8 5.33663 8 4.92241V4.75C8 4.05964 8.55965 3.5 9.25 3.5H13.25C13.9404 3.5 14.5 4.05964 14.5 4.75V15.25C14.5 15.9404 13.9404 16.5 13.25 16.5H9.25C8.55965 16.5 8 15.9404 8 15.25V15.0776C8 14.6634 7.66421 14.3276 7.25 14.3276C6.83579 14.3276 6.5 14.6634 6.5 15.0776V15.25C6.5 16.7688 7.73122 18 9.25 18H13.25C14.7688 18 16 16.7688 16 15.25V4.75C16 3.23122 14.7688 2 13.25 2H9.25Z" fill="black"/>
<path d="M11.25 10.875C11.6642 10.875 12 10.5392 12 10.125C12 9.71079 11.6642 9.375 11.25 9.375L5.74365 9.375L6.79447 8.26581C7.07934 7.96511 7.06651 7.49041 6.76581 7.20554C6.46511 6.92066 5.99041 6.93349 5.70554 7.23419L3.45554 9.60919C3.18149 9.89847 3.18149 10.3515 3.45554 10.6408L5.70554 13.0158C5.99041 13.3165 6.46511 13.3293 6.76581 13.0445C7.06651 12.7596 7.07934 12.2849 6.79447 11.9842L5.74365 10.875H11.25Z" fill="black"/>
</svg>

<svg viewBox="0 0 20 20" fill="none" xmlns="http://www.w3.org/2000/svg"><path d="M9.25 2a2.75 2.75 0 0 0-2.75 2.75v.172a.75.75 0 1 0 1.5 0v-.172c0-.69.56-1.25 1.25-1.25h4c.69 0 1.25.56 1.25 1.25v10.5c0 .69-.56 1.25-1.25 1.25h-4c-.69 0-1.25-.56-1.25-1.25v-.172a.75.75 0 0 0-1.5 0v.172a2.75 2.75 0 0 0 2.75 2.75h4a2.75 2.75 0 0 0 2.75-2.75v-10.5a2.75 2.75 0 0 0-2.75-2.75h-4Z" fill="#5C5F62"/><path d="M11.25 10.875a.75.75 0 0 0 0-1.5h-5.506l1.05-1.11a.75.75 0 0 0-1.088-1.03l-2.25 2.374a.75.75 0 0 0 0 1.032l2.25 2.375a.75.75 0 0 0 1.088-1.032l-1.05-1.109h5.506Z" fill="#5C5F62"/></svg>
